!!!SOCIAL_FUNCTION:	songs received from animals
!!!PDT:	1918

Specific Region: Dakotas, Minnesota, Montana, Nebraska
!!!REG: Dakotas and Montana
!!!LING_GROUP: Siouan
!!!LANG: Tone
!!!OTL@ENG: I Made It Walk
!!!ONM: No. 52
**kern
*Imale
*clefF4
*k[b-e-a-d-g-]
*M4/8
*MM84
8A-
=1
4.f
8e-
=2||
*M5/8
4.e-
8d-
8d-
=3
2d-
8d-
=4||
*M4/8
4.f
8e-
=5||
*M5/8
4.e-
8d-
8d-
=6||
*M4/8
2d-
=7||
*M3/8
8d-
8d-
8e-
=8
4.e-
=9
8d-
8d-
8d-
=10||
*M4/8
4.e-
8d-
=11||
*M5/8
4.d-
8A-
8A-
=12
2A-
8A-
=13||
*M4/8
4.e-
8d-
=14||
*M5/8
4.d-
8A-
8A-
=15
2A-
8E-
=16||
*M4/8
4.F
8E-
=17||
*M5/8
4.E-
8D-
8D-
=
2.D-
8D-
=18||
*M4/8
4.E-
8D-
=19||
*M5/8
4.D-
8AA-
8AA-
=20
2AA-
==
*-
!!!CNT: Native American -- Sioux
!!!MRD: 1911/07//-1914///
!!!OCL: Frances Densmore
!!!YOR1: Teton Sioux Music, Bulletin 61,
!!!YOR2: Bureau of American Ethnology, Smithsonian Institution
!!!PPR: Government Printing Office
!!!PPP: Washington, D.C.
!!!PDT: 1918///
!!!ENC: Craig Stuart Sapp
!!!END: 2002/03/25/
!!!EEV: 2002/03/31/
!!!AGN: Song of Personal Dreams/Song Received from Animals
!!!MPN@@SIO: Waha'chungka-nong'pa
!!!MPN@ENG: Two Shields
!!!TXO: Teton Sioux
!!!MLC: Standing Rock Reservation, South Dakota, United States of America
!!!ARL: 45.9/-100.7#
!!!catalog: Catalogue No. 533
!!!PPG: 189
!!!EFL: 52/245
!!!VTS: 917520355
